flaticon/essential/notepad-2.svg

<svg xmlns="http://www.w3.org/2000/svg" width="32" height="32" viewBox="0 0 24 24">
    <path d="M6 7.601562L9.601562 7.601562C9.820312 7.601562 10 7.421875 10 7.199219 10 6.980469 9.820312 6.800781 9.601562 6.800781L6 6.800781C5.777344 6.800781 5.601562 6.980469 5.601562 7.199219 5.601562 7.421875 5.777344 7.601562 6 7.601562zM6 10.398438L8 10.398438C8.222656 10.398438 8.398438 10.222656 8.398438 10 8.398438 9.777344 8.222656 9.601562 8 9.601562L6 9.601562C5.777344 9.601562 5.601562 9.777344 5.601562 10 5.601562 10.222656 5.777344 10.398438 6 10.398438zM11.199219 10.398438L14 10.398438C14.222656 10.398438 14.398438 10.222656 14.398438 10 14.398438 9.777344 14.222656 9.601562 14 9.601562L11.199219 9.601562C10.980469 9.601562 10.800781 9.777344 10.800781 10 10.800781 10.222656 10.980469 10.398438 11.199219 10.398438zM9.882812 10.285156C9.957031 10.207031 10 10.105469 10 10 10 9.894531 9.957031 9.792969 9.882812 9.714844 9.730469 9.566406 9.46875 9.566406 9.316406 9.714844 9.242188 9.792969 9.199219 9.894531 9.199219 10 9.199219 10.105469 9.242188 10.207031 9.316406 10.285156 9.390625 10.359375 9.492188 10.398438 9.601562 10.398438 9.703125 10.398438 9.808594 10.355469 9.882812 10.285156zM15.601562 10.398438C15.707031 10.398438 15.808594 10.355469 15.882812 10.285156 15.957031 10.207031 16 10.105469 16 10 16 9.894531 15.957031 9.792969 15.882812 9.714844 15.730469 9.566406 15.46875 9.566406 15.316406 9.714844 15.242188 9.792969 15.199219 9.894531 15.199219 10 15.199219 10.105469 15.242188 10.207031 15.316406 10.285156 15.390625 10.359375 15.492188 10.398438 15.601562 10.398438zM7.199219 12.800781C7.199219 13.019531 7.378906 13.199219 7.601562 13.199219L10.398438 13.199219C10.621094 13.199219 10.800781 13.019531 10.800781 12.800781 10.800781 12.578125 10.621094 12.398438 10.398438 12.398438L7.601562 12.398438C7.378906 12.398438 7.199219 12.578125 7.199219 12.800781zM6.285156 13.085938C6.359375 13.007812 6.398438 12.902344 6.398438 12.800781 6.398438 12.695312 6.359375 12.589844 6.285156 12.515625 6.132812 12.367188 5.867188 12.367188 5.714844 12.515625 5.640625 12.589844 5.601562 12.691406 5.601562 12.800781 5.601562 12.902344 5.644531 13.007812 5.714844 13.085938 5.792969 13.15625 5.894531 13.199219 6 13.199219 6.105469 13.199219 6.207031 13.15625 6.285156 13.085938zM8.210938 14.855469C7.335938 15.3125 7.039062 16.183594 6.929688 17.085938 6.765625 16.949219 6.601562 16.808594 6.433594 16.671875 6.042969 16.34375 5.472656 16.90625 5.871094 17.238281 6.242188 17.550781 6.617188 17.863281 6.992188 18.179688 7.253906 18.398438 7.664062 18.257812 7.675781 17.894531 7.703125 17.027344 7.746094 16 8.613281 15.546875 9.070312 15.308594 8.667969 14.617188 8.210938 14.855469zM10.871094 16.449219C10.316406 16.578125 9.6875 17.28125 9.296875 16.492188 9.066406 16.03125 8.378906 16.4375 8.605469 16.894531 8.8125 17.316406 9.203125 17.609375 9.671875 17.667969 9.910156 17.699219 10.125 17.664062 10.347656 17.578125 10.511719 17.515625 11.121094 17.054688 11.253906 17.292969 11.503906 17.742188 12.195312 17.339844 11.945312 16.886719 11.730469 16.503906 11.296875 16.351562 10.871094 16.449219zM10.871094 16.449219"/>
    <path d="M 22.007812 0 L 20.394531 0 C 19.875 0 19.4375 0.335938 19.273438 0.800781 L 12.800781 0.800781 L 12.800781 0.398438 C 12.800781 0.179688 12.621094 0 12.398438 0 L 8.800781 0 C 8.578125 0 8.398438 0.179688 8.398438 0.398438 L 8.398438 0.800781 L 0.800781 0.800781 L 0.800781 24 L 20.398438 24 L 20.398438 22.207031 L 20.800781 22.90625 L 20.800781 23.601562 C 20.800781 23.820312 20.980469 24 21.199219 24 C 21.421875 24 21.601562 23.820312 21.601562 23.601562 L 21.601562 22.90625 L 23.199219 20.105469 L 23.199219 1.195312 C 23.199219 0.535156 22.664062 0 22.007812 0 Z M 20 3.601562 L 22.398438 3.601562 L 22.398438 4.398438 L 20 4.398438 Z M 12 0.800781 L 12 2 L 9.199219 2 L 9.199219 0.800781 Z M 8.398438 1.601562 L 8.398438 2.800781 L 12.800781 2.800781 L 12.800781 1.601562 L 14.800781 1.601562 L 14.800781 3.199219 L 6.398438 3.199219 L 6.398438 1.601562 Z M 6 4 L 15.601562 4 L 15.601562 3.601562 L 17.601562 3.601562 L 17.601562 21.199219 L 3.601562 21.199219 L 3.601562 3.601562 L 5.601562 3.601562 L 5.601562 4 Z M 19.601562 23.199219 L 1.601562 23.199219 L 1.601562 1.601562 L 5.601562 1.601562 L 5.601562 2.800781 L 2.800781 2.800781 L 2.800781 22 L 18.398438 22 L 18.398438 2.800781 L 15.601562 2.800781 L 15.601562 1.601562 L 19.199219 1.601562 L 19.199219 20.105469 L 19.601562 20.804688 Z M 20.289062 20.398438 L 22.109375 20.398438 L 21.199219 21.992188 L 20.398438 20.59375 Z M 22.398438 19.601562 L 20 19.601562 L 20 5.199219 L 22.398438 5.199219 Z M 20 2.800781 L 20 1.195312 C 20 0.976562 20.175781 0.800781 20.394531 0.800781 L 22.003906 0.800781 C 22.222656 0.800781 22.398438 0.976562 22.398438 1.195312 L 22.398438 2.800781 Z M 20 2.800781"/>
</svg>

<svg xmlns="http://www.w3.org/2000/svg" width="32" height="32" viewBox="0 0 24 24">
    <path d="M6 7.602h3.602a.401.401 0 0 0 0-.801H6a.398.398 0 0 0-.398.398c0 .223.175.403.398.403zm0 0M6 10.398h2A.395.395 0 0 0 8.398 10 .395.395 0 0 0 8 9.602H6a.395.395 0 0 0-.398.398c0 .223.175.398.398.398zm0 0M11.2 10.398H14a.395.395 0 0 0 .398-.398.395.395 0 0 0-.398-.398h-2.8a.398.398 0 1 0 0 .796zm0 0M9.883 10.285A.416.416 0 0 0 10 10a.416.416 0 0 0-.117-.285.416.416 0 0 0-.567 0A.416.416 0 0 0 9.2 10c0 .105.043.207.117.285a.398.398 0 0 0 .286.113.42.42 0 0 0 .28-.113zm0 0M15.602 10.398a.413.413 0 0 0 .28-.113A.416.416 0 0 0 16 10a.416.416 0 0 0-.117-.285.416.416 0 0 0-.567 0A.416.416 0 0 0 15.2 10c0 .105.043.207.117.285a.398.398 0 0 0 .286.113zm0 0M7.2 12.8c0 .22.179.4.402.4h2.796a.401.401 0 1 0 0-.802H7.602a.402.402 0 0 0-.403.403zm0 0M6.285 13.086a.419.419 0 0 0 0-.57.42.42 0 0 0-.57 0 .398.398 0 0 0-.113.285c0 .101.043.207.113.285a.43.43 0 0 0 .285.113.43.43 0 0 0 .285-.113zm0 0M8.21 14.855c-.874.457-1.17 1.329-1.28 2.23-.164-.136-.328-.276-.496-.413-.391-.328-.961.234-.563.566.371.313.746.625 1.121.942.262.218.672.078.684-.285.027-.868.07-1.895.937-2.348.457-.238.055-.93-.402-.692zm0 0M10.871 16.45c-.555.128-1.184.831-1.574.042-.23-.46-.918-.055-.692.403.207.421.598.714 1.067.773.238.031.453-.004.676-.09.164-.062.773-.523.906-.285.25.45.941.047.691-.406-.215-.383-.648-.535-1.074-.438zm0 0"/>
    <path d="M22.008 0h-1.613c-.52 0-.957.336-1.122.8h-6.472V.399A.401.401 0 0 0 12.398 0H8.801a.401.401 0 0 0-.403.398v.403H.801V24h19.597v-1.793l.403.7v.695a.4.4 0 0 0 .8 0v-.696l1.598-2.8V1.195C23.2.535 22.664 0 22.008 0zM20 3.602h2.398v.796H20zM12 .8V2H9.2V.8zm-3.602.8v1.2h4.403V1.6h2V3.2H6.398V1.602zM6 4h9.602v-.398h2v17.597h-14V3.602h2V4zm13.602 19.2h-18V1.601h4V2.8H2.8V22h15.597V2.8h-2.796V1.603h3.597v18.503l.403.7zm.687-2.802h1.82l-.91 1.594-.8-1.398zm2.11-.796H20V5.199h2.398zM20 2.8V1.195c0-.218.176-.394.395-.394h1.609c.219 0 .394.176.394.394v1.606zm0 0"/>
</svg>
